!!! OTL: Berkowitz32
!!! Chapter: 1
!!! Section: I
!!! Page: 10
!!! Mode: 
!!! Encoder: DJB
**kern
*staff1
*I"Piano
=1-
*clefF4
*k[b-e-]
*B-:
*M4/4
4.BB-/
8C/
4.D\
8E-\
=2
4F\
4D\
2F\
=3
4.G\
8F\
4.E-\
8D\
=4
2.C/
4G\
=5
4.F\
8D\
4F\
4B-\
=6
4A\
4G\
4F\
4D\
=7
4.G\
8F\
4E-\
4D\
=8
4.C/
8C/
2BB-/
==
*-
